X:2
T:Hora ca din la caval
R:hora
H:A version of #3
D:Gheorghe Zamfir
O:Romania
Z:id:hn-hora-2
M:C|
L:1/8
Q:1/2=120
K:Ador ^d =c
"Am"e2^d2 "Am/E"e2d2 | "Am"cAc2 "D#dim"^d3c | 
   "E"e2^d2 "E/G#"cAc2 | "Am"^deec "Am/E"e4 |
   [1 "Am"e2^d2 "Am7/G"e2d2 | "F#m7b5"cAc2 "D#dim"^d3c | 
      "E"e2^d2 "E/G#"ceec | "Am"A4 A4 :|
   [2 "Am"ABc^d "Am7/G"e2^d2 | "F#m7b5"cAc2 "D#dim"^d3c | 
      "E"e2^d2 "E/G#"ceec | "Am"A4 A4 || 
|: "Am"ABc^d "Am/E"e2^d2 | "Am"cAc2 "D#dim"^d3c | 
   "E"e2^d2 "E/G#"cAc2 | "Am"^deec "Am/E"e4 | 
   "Am"ABc^d "Am7/G"e2^d2 | "F#m7b5"cAc2 "D#dim"^d3c | 
   "E"e2^d2 "E/G#"ceec | "Am"A4 A4 :| 
|: "C"efgf "C/G"aggf | "C"fee^d "D#dim"dddc | 
   "E"e2^d2 "E/G#"cAc2 | "Am"^deec "Am/E"e4 | 
   "Am"a2a2-"Am7/G"a2g2 | "F#m7b5"fefe "D#dim"^dddc | 
   "E"e2^d2 "E/G#"ceec | "Am"A4 A4 :| 

